X:2077
T:Branles de villages 2
S:AH; UGB record
R:Branle
O:France
M:2/4
L:1/8
K:C
cc BA/B/|cB/A/G2|cc BA/B/|cG AG::\
A/B/c BA|GF E>F|
ED ED/E/|C/D/E/F/ G2|\
A/B/c BA|GF EA|AG/F/ EG|GG/F/ EF/E/|D/C/D C2||


